build/img/icon-logo.svg

<svg viewBox="0 0 57 26" xmlns="http://www.w3.org/2000/svg">
<path d="M48.7814 25.2838H8.21869C7.82465 25.2838 7.47439 25.0332 7.34674 24.6608L1.28311 6.97525C1.11853 6.49312 1.37489 5.96931 1.8565 5.80367C2.0042 5.75356 2.15823 5.7409 2.30119 5.76622C2.63457 5.78574 2.94526 5.98724 3.08927 6.31429C3.83885 8.01654 6.50537 13.512 9.61604 13.512C9.65455 13.512 9.69359 13.511 9.73315 13.5089C11.6095 13.4255 14.544 11.2601 17.8688 1.4233C17.9959 1.04878 18.3467 0.796631 18.7418 0.796631C19.1374 0.796631 19.4882 1.04878 19.6154 1.4233C20.7505 4.77768 24.5554 13.4577 28.5064 13.4577C28.5169 13.4577 28.527 13.4572 28.538 13.4572C30.4112 13.4345 33.2914 11.3324 36.3757 1.44387C36.4964 1.05827 36.8525 0.796631 37.2561 0.796631H37.265C37.6722 0.800851 38.0283 1.07093 38.1412 1.46181C39.0838 4.70805 42.4271 13.2108 46.5279 13.5659C48.9239 13.7631 51.5803 11.0518 54.2031 5.69606C54.4162 5.25876 54.9342 5.06201 55.3842 5.24927C55.8331 5.43548 56.0609 5.93871 55.9037 6.39975L49.6539 24.6608C49.5257 25.0337 49.1755 25.2838 48.7814 25.2838ZM8.87702 23.4401H48.122L51.7338 12.887C49.9883 14.7343 48.2159 15.5582 46.3676 15.4031C41.8258 15.008 38.7093 8.46333 37.2603 4.61627C34.7008 11.7607 31.8434 15.2618 28.5591 15.3003C28.5412 15.3003 28.5243 15.3013 28.5064 15.3013C23.9166 15.3013 20.3734 8.26499 18.7682 4.38364C16.0294 11.6109 13.0902 15.2043 9.81491 15.3509C8.13588 15.4158 6.67364 14.5792 5.4145 13.338L8.87702 23.4401Z" stroke-width="0.8"/>
</svg>

<svg viewBox="0 0 57 26" xmlns="http://www.w3.org/2000/svg"><path d="M48.781 25.284H8.22a.922.922 0 01-.872-.623L1.283 6.975a.923.923 0 011.018-1.209.92.92 0 01.788.548c.75 1.703 3.416 7.198 6.527 7.198l.117-.003c1.877-.084 4.811-2.249 8.136-12.086a.922.922 0 011.746 0c1.136 3.355 4.94 12.035 8.891 12.035h.032c1.873-.024 4.753-2.126 7.838-12.014a.922.922 0 01.88-.647h.009a.921.921 0 01.876.665c.943 3.246 4.286 11.749 8.387 12.104 2.396.197 5.052-2.514 7.675-7.87a.921.921 0 011.7.704l-6.25 18.26a.922.922 0 01-.872.624zM8.877 23.44h39.245l3.612-10.553c-1.746 1.847-3.518 2.671-5.366 2.516-4.542-.395-7.659-6.94-9.108-10.787-2.56 7.145-5.417 10.646-8.7 10.684l-.054.001c-4.59 0-8.133-7.036-9.738-10.917-2.739 7.227-5.678 10.82-8.953 10.967-1.68.065-3.141-.772-4.4-2.013L8.877 23.44z"/></svg>
